X: 1405
T: Mâhur Sazsemâîsi
C: Refik Talat Alpman
O: Turkey
F: http://compmusic.upf.edu/node/140
N: mahur--sazsemaisi--aksaksemai----refik_talat_alpman
N: makam= mahur
N: form= sazsemaisi
N: usul= aksaksemai = 10/8
M: 10/8
L: 1/16
K: C ^9/8f   
Q: 1/4=162
%%MIDI tuningsystem comma53
GBdg bd'bg afd2 efg6  | DFAd faf3def ged6  | 
w:  1. HANE  |   | 
d2e2 f2g3fa3gb2 agfe  | d4 B2.d4z2 (3defg4z2  | 
w:   |   | 
GBdg bd'bg afd2 efg6  | DFAd faf3def ged6  | 
w:  1. HANE  |   | 
d2e2 f2g3fa3gb2 agfe  | d4 B2.d4z2 (3defg4z2  | 
w:   |   | 
g3/2f/ga b6g3/2f/ ged6  | d3/2^c/de f6fe fd=c6  | \
w:  TESLİM  |   | 
c3/2B/cd e6e3/2^d/ ecB2 c2^c2  | 
w:   | 
d2^c2 =c2.B.d .g.d.c.A .F.AG6  | g3/2f/ga b6g3/2f/ ged6  | 
w:   |  TESLİM  | 
d3/2^c/de f6fe fd=c6  | c3/2B/cd e6e3/2^d/ ecB2 c2^c2  | 
w:   |   | 
d2^c2 =c2.B.d .g.d.c.A .F.AG6  | d4 d2d_e2dd2 _B2d6  | \
w:   |  2. HANE  | 
c6cd2A_B2 ^F2G4z2  | 
w:   | 
d4 e2fg2fa2 f2g4fe  | d4 B2.d4z2 (3defg4z2  | \
w:   |   | 
d4 d2d_e2dd2 _B2d6  | 
w:  2. HANE  | 
c6cd2A_B2 ^F2G4z2  | d4 e2fg2fa2 f2g4fe  | \
w:   |   | 
d4 B2.d4z2 (3defg4z2  | 
w:   | 
g3/2f/ga b6g3/2f/ ged6  | d3/2^c/de f6fe fd=c6  | \
w:  TESLİM  |   | 
c3/2B/cd e6e3/2^d/ ecB2 c2^c2  | 
w:   | 
d2^c2 =c2.B.d .g.d.c.A .F.AG6  | g3/2f/ga b6g3/2f/ ged6  | 
w:   |  TESLİM  | 
d3/2^c/de f6fe fd=c6  | c3/2B/cd e6e3/2^d/ ecB2 c2^c2  | 
w:   |   | 
d2^c2 =c2.B.d .g.d.c.A .F.AG6  | _1/4b4 b2(3d'^c'd' (3e'd'=c'b3/2^a/ gab6  | 
w:   |  3. HANE  | 
_1/4bc'^ab ga^fg _1/4ef^d=e c=d_1/4B6  | \
w:   | 
c4 d2e2 {f}ede2 f2g4fe  | 
w:   | 
d4 B2.d4z2 (3defg4z2  | _1/4b4 b2(3d'^c'd' (3e'd'=c'b3/2^a/ gab6  | 
w:   |  3. HANE  | 
_1/4bc'^ab ga^fg _1/4ef^d=e c=d_1/4B6  | \
w:   | 
c4 d2e2 {f}ede2 f2g4fe  | 
w:   | 
d4 B2.d4z2 (3defg4z2  | g3/2f/ga b6g3/2f/ ged6  | \
w:   |  TESLİM  | 
d3/2^c/de f6fe fd=c6  | 
w:   | 
c3/2B/cd e6e3/2^d/ ecB2 c2^c2  | d2^c2 =c2.B.d .g.d.c.A .F.AG6  | 
w:   |   | 
g3/2f/ga b6g3/2f/ ged6  | d3/2^c/de f6fe fd=c6  | \
w:  TESLİM  |   | 
c3/2B/cd e6e3/2^d/ ecB2 c2^c2  | 
w:   | 
d2^c2 =c2.B.d .g.d.c.A .F.AG6  | z12  | \
w:   |  | 
G4B6d2  | B4G8  | D4^F6G2  | 
w:  4. HANE  |   |   | 
A4D2^F2A4  | A4c6e2  | c4A8  | D4G6B2  | d4G2B2d4  | \
w:   |   |   |   |   | 
d4e6^f2  | d4^c8  | 
w:   |   | 
d4e4^f4  | g4a4^f2e2  | d2d'2c'2b2a2g2  | \
w:   |   |   | 
b2a2g2^f2e2d2  | d4^f4a4  | 
w:   |   | 
d12  | G4B6d2  | B4G8  | D4^F6G2  | A4D2^F2A4  | \
w:   |   |   |   |   | 
A4c6e2  | c4A8  | D4G6B2  | 
w:   |   |   | 
d4G2B2d4  | d4e6^f2  | d4^c8  | d4e4^f4  | \
w:   |   |   |   | 
g4a4^f2e2  | d2d'2c'2b2a2g2  | 
w:   |   | 
b2a2g2^f2e2d2  | d4^f4a4  | d12  | g2f2e4e2g2  | \
w:   |   |   |   | 
f2e2d4d2f2  | e2d2c4c2e2  | 
w:   |   | 
d2c2B4B2d2  | c2B2A4A2c2  | B4A4G4  | b4b2a2a2g2  | \
w:   |   |   |   | 
g2f2f2e2e2d2  | 
w:   | 
d2c2c2B2B2A2  | B2c2d8  | g2f2e4e2g2  | \
w:   |   |   | 
f2e2d4d2f2  | e2d2c4c2e2  | 
w:   |   | 
d2c2B4B2d2  | c2B2A4A2c2  | B4A4G4  | G4B4d4  | \
w:   |   |   |   | 
g4d4B4  | c4A4F4  | 
w:   |   | 
G12  | z20  | g3/2f/ga b6g3/2f/ ged6  | \
w:   |  |  TESLİM  | 
d3/2^c/de f6fe fd=c6  | 
w:   | 
c3/2B/cd e6e3/2^d/ ecB2 c2^c2  | d2^c2 =c2.B.d .g.d.c.A .F.AG6  | 
w:   |   | 
g3/2f/ga b6g3/2f/ ged6  | d3/2^c/de f6fe fd=c6  | \
w:  TESLİM  |   | 
c3/2B/cd e6e3/2^d/ ecB2 c2^c2  | 
w:   | 
d2^c2 =c2.B.d .g.d.c.A .F.AG6  | |


